client/src/assets/images/icon-counseling-active.svg

<svg viewBox="0 0 92 92" xmlns="http://www.w3.org/2000/svg"><g fill="#fff"><path d="m68.42 55.24a.74.74 0 0 1 -.48-.18l-7.27-6.06h-8v-1.5h8.33a.74.74 0 0 1 .48.18l6.24 5.23v-4.69a.76.76 0 0 1 .75-.75h4.53v-24.26h-39.39v16.54h-1.5v-17.29a.75.75 0 0 1 .75-.75h40.93a.75.75 0 0 1 .75.75v25.76a.74.74 0 0 1 -.75.75h-4.62v5.52a.75.75 0 0 1 -.43.68.88.88 0 0 1 -.32.07z"/><path d="m25 72.21a.75.75 0 0 1 -.75-.75v-5.89h-6a.75.75 0 0 1 -.75-.75v-24.65a.75.75 0 0 1 .22-.53.73.73 0 0 1 .53-.22l33.75.24a.75.75 0 0 1 .74.75v24.41a.76.76 0 0 1 -.75.75h-18.86l-7.65 6.43a.76.76 0 0 1 -.48.21zm-6-8.14h6a.75.75 0 0 1 .75.75v5l6.63-5.61a.74.74 0 0 1 .48-.17h18.35v-22.88l-32.21-.23z"/><path d="m40.11 27.99h28.83v1.5h-28.83z"/><path d="m56.81 40.12h8.49v1.5h-8.49z"/><path d="m40.11 34.06h28.83v1.5h-28.83z"/><path d="m27.7 45.97h15.77v1.5h-15.77z"/><path d="m24.06 51.43h23.04v1.5h-23.04z"/><path d="m27.7 56.89h15.77v1.5h-15.77z"/></g></svg>

<svg xmlns="http://www.w3.org/2000/svg" viewBox="0 0 92 92">
    <defs>
        <style>
            .cls-1{fill:#fff;}
        </style>
    </defs>
    <title>
        icon-counseling-active
    </title>
    <path class="cls-1" d="M68.42,55.24a.74.74,0,0,1-.48-.18L60.67,49h-8v-1.5H61a.74.74,0,0,1,.48.18l6.24,5.23V48.22a.76.76,0,0,1,.75-.75H73V23.21H33.61V39.75h-1.5V22.46a.75.75,0,0,1,.75-.75H73.79a.75.75,0,0,1,.75.75V48.22a.74.74,0,0,1-.75.75H69.17v5.52a.75.75,0,0,1-.43.68A.88.88,0,0,1,68.42,55.24Z"/>
    <path class="cls-1" d="M25,72.21a.75.75,0,0,1-.75-.75V65.57h-6a.75.75,0,0,1-.75-.75V40.17a.75.75,0,0,1,.22-.53.73.73,0,0,1,.53-.22L52,39.66a.75.75,0,0,1,.74.75V64.82a.76.76,0,0,1-.75.75H33.13L25.48,72A.76.76,0,0,1,25,72.21Zm-6-8.14h6a.75.75,0,0,1,.75.75v5l6.63-5.61a.74.74,0,0,1,.48-.17H51.21V41.16L19,40.93Z"/>
    <rect class="cls-1" x="40.11" y="27.99" width="28.83" height="1.5"/>
    <rect class="cls-1" x="56.81" y="40.12" width="8.49" height="1.5"/>
    <rect class="cls-1" x="40.11" y="34.06" width="28.83" height="1.5"/>
    <rect class="cls-1" x="27.7" y="45.97" width="15.77" height="1.5"/>
    <rect class="cls-1" x="24.06" y="51.43" width="23.04" height="1.5"/>
    <rect class="cls-1" x="27.7" y="56.89" width="15.77" height="1.5"/>
</svg>
